X:1
T:Idumea, SM
T:Idumea, SM
T:Ananias Davisson (1780-1857)
T:Public Domain Courtesy of the Cyber Hymnal™
C:Ananias Davisson (1780-1857)
Z:Public Domain
Z:Courtesy of the Cyber Hymnal™
%%score ( 1 2 ) 3
L:1/8
Q:1/4=110
M:3/4
K:C
V:1 treble 
V:2 treble 
V:3 bass 
V:1
 z4 [Ac]2 | [Ae]4 d2 | c4 d2 | [Ae]4 e2 | [dg]4 (ed) | [ce]4 d2 | [Ae]4 [Ae]2 | [cg]4 ([ce][Bd]) | %8
 [Ae]4 ([cd][cd]) | [Ae]4 ([GB][EA]) | G4 [Gg]2 | [Ae]4 ([Ge][Ad]) | c4 (dc) | [Ae]6 |] %14
V:2
 x6 | x4 (GA) | x4 (dc) | x4 e2 | x6 | x4 (dc) | x6 | x6 | x6 | x6 | x6 | x6 | x4 [Ed]2 | x6 |] %14
V:3
 z4 A,2 | A,4 D,2 | E,4 E,2 | A,,4 A,2 | G,4 (CB,) | A,4 G,2 | E,4 A,2 | G,4 (A,B,) | A,4 E,2 | %9
 A,,4 C,2 | G,4 C,2 | A,,4 (C,D,) | E,4 E,2 | A,,6 |] %14

